X:6335
T:Totur () fr Lolland / Falster
L:1/8
M:2/4
O:Denmark
Z:Richard Robinson 
%%TUNEURL: http://www.leeds.ac.uk/music/Info/RRTuneBk/gettune/00000914.html
%%ID:00000914
K:G
B>c d/e/d/c/ | BD AD | BD cD | BD AD |\
B>c d/e/d/c/ | BD AD | BA GF | A2G2 :|
|:gd d/e/d/c/ | BD GB | AD FA | BD GB |\
gd d/e/d/c/ | BD GB | AD FA | G2G2 :|
